src/assets/icons/love.svg

<svg width="15" height="13" viewBox="0 0 15 13" fill="none" xmlns="http://www.w3.org/2000/svg">
<path d="M13.7574 1.36529C12.1262 -0.186973 9.47106 -0.186973 7.83932 1.36494L7.50003 1.68721L7.16109 1.36509C5.52917 -0.187031 2.87443 -0.186855 1.24251 1.36509C0.44124 2.12722 0 3.1381 0 4.21125C0 5.28475 0.44124 6.29546 1.24263 7.05791L7.13771 12.6546C7.23911 12.7511 7.36966 12.7991 7.5 12.7991C7.63034 12.7991 7.76071 12.7509 7.86229 12.6544L13.7574 7.05791C14.5586 6.29563 15 5.28478 15 4.21143C15 3.13811 14.5586 2.12739 13.7574 1.36529ZM13.0321 6.29476L7.5 11.547L1.96808 6.29493C1.37771 5.73354 1.05264 4.99354 1.05264 4.21143C1.05264 3.42932 1.37771 2.68931 1.96808 2.12792C2.58387 1.54195 3.39264 1.24916 4.20158 1.24916C5.0107 1.24916 5.81982 1.5423 6.43562 2.12827L7.13736 2.79478C7.34051 2.98793 7.65929 2.98793 7.86246 2.79478L8.56438 2.12792C9.79614 0.956162 11.8002 0.956162 13.0319 2.12792C13.6221 2.68934 13.9474 3.42932 13.9474 4.21143C13.9474 4.99354 13.6221 5.73337 13.0321 6.29476Z" fill="#696969"/>
</svg>

<svg xmlns="http://www.w3.org/2000/svg" width="15" height="13" fill="none"><path fill="#696969" d="M13.757 1.365c-1.63-1.552-4.286-1.552-5.918 0l-.339.322-.339-.322c-1.632-1.552-4.287-1.552-5.918 0C.44 2.127 0 3.138 0 4.211c0 1.074.441 2.084 1.243 2.847l5.895 5.597a.524.524 0 0 0 .724 0l5.895-5.597C14.56 6.296 15 5.285 15 4.21c0-1.073-.441-2.084-1.243-2.846Zm-.725 4.93L7.5 11.547 1.968 6.295a2.861 2.861 0 0 1-.915-2.084c0-.782.325-1.522.915-2.083a3.232 3.232 0 0 1 2.234-.879c.809 0 1.618.293 2.234.88l.701.666a.526.526 0 0 0 .725 0l.702-.667c1.232-1.172 3.236-1.172 4.468 0 .59.561.915 1.301.915 2.083 0 .783-.325 1.522-.915 2.084Z"/></svg>
